site/public/assets/images/icons/icon-calendar.svg

<?xml version="1.0" encoding="UTF-8"?>
<svg width="20px" height="20px" viewBox="0 0 20 20" version="1.1" xmlns="http://www.w3.org/2000/svg" xmlns:xlink="http://www.w3.org/1999/xlink">
    <!-- Generator: Sketch 58 (84663) - https://sketch.com -->
    <title>calendar [#1322]</title>
    <desc>Created with Sketch.</desc>
    <g id="Icons" stroke="none" stroke-width="1" fill="none" fill-rule="evenodd">
        <g id="Education-&amp;-Time" transform="translate(-20.000000, -20.000000)" fill="#FFFFFF">
            <g id="icons" transform="translate(20.000000, 20.000000)">
                <path d="M17.971246,8 L1.99680511,8 L1.99680511,4.971 C1.99680511,4.435 2.43111022,4 2.96625399,4 L3.99361022,4 L3.99361022,6 L5.99041534,6 L5.99041534,4 L13.9776358,4 L13.9776358,6 L15.9744409,6 L15.9744409,4 L16.9728435,4 C17.5239617,4 17.971246,4.448 17.971246,5 L17.971246,8 Z M17.971246,17 C17.971246,17.55 17.5219649,18 16.9728435,18 L2.99520767,18 C2.44408946,18 1.99680511,17.552 1.99680511,17 L1.99680511,10 L17.971246,10 L17.971246,17 Z M0.0638977636,17.761 C0.0638977636,18.865 1.02136581,20 2.12360224,20 L18.0980431,20 C19.201278,20 20,18.979 20,17.761 C20,17.372 19.9680511,5.36 19.9680511,4.708 C19.9680511,2.626 19.6875,2 15.9744409,2 L15.9744409,0 L13.9776358,0 L13.9776358,2 L5.99041534,2 L5.99041534,0 L3.99361022,0 L3.99361022,2 L1.99680511,2 C0.8985623,2 0,2.9 0,4 L0.0638977636,17.761 Z" id="calendar-[#1322]"></path>
            </g>
        </g>
    </g>
</svg>

<?xml version="1.0" encoding="utf-8"?>
<!-- Generator: Adobe Illustrator 22.1.0, SVG Export Plug-In . SVG Version: 6.00 Build 0)  -->
<svg version="1.1" id="Livello_1" xmlns="http://www.w3.org/2000/svg" xmlns:xlink="http://www.w3.org/1999/xlink" x="0px" y="0px"
	 viewBox="0 0 20 20" style="enable-background:new 0 0 20 20;" xml:space="preserve">
<style type="text/css">
	.st0{fill:#003249;}
</style>
<title>calendar [#1322]</title>
<desc>Created with Sketch.</desc>
<g id="Icons">
	<g id="Education-_x26_-Time" transform="translate(-20.000000, -20.000000)">
		<g id="icons" transform="translate(20.000000, 20.000000)">
			<path id="calendar-_x5B__x23_1322_x5D_" class="st0" d="M18,8H2V5c0-0.5,0.4-1,1-1h1v2h2V4h8v2h2V4h1c0.6,0,1,0.4,1,1V8z M18,17
				c0,0.5-0.4,1-1,1H3c-0.6,0-1-0.4-1-1v-7h16V17z M0.1,17.8c0,1.1,1,2.2,2.1,2.2h16c1.1,0,1.9-1,1.9-2.2c0-0.4,0-12.4,0-13.1
				C20,2.6,19.7,2,16,2V0h-2v2H6V0H4v2H2C0.9,2,0,2.9,0,4L0.1,17.8z"/>
		</g>
	</g>
</g>
</svg>
